X:1
T:As I went a walking in the month of May - Mundy
T:#
%%score [ 1 2 3 ]
L:1/8
Q:1/4=120
M:4/2
K:F
V:1 treble nm="Soprano " snm="S"
V:2 treble nm="Alto" snm="A"
V:3 treble-8 nm="Tenor" snm="T"
V:1
"^As I went a walking in the month of May""^John Mundy\n(c. 1555-1630)" A2 B2 c2 c2 d4 c4 | %1
w: As I went a walk- ing|
 d2 c2 d2 e2 f4 F4- | F2 G2 A4 B2 (A2 G4) |[M:4/2] A8 c2 c2 c4 | d4 d4 B2 c2 A4 | =B4 B4 d2 f4 d2 | %6
w: in the month of May, in|* the * month of *|May, Mer- ri- ly|talk- ing, mer- ri- ly|talk- ing, I thus be-|
 e4 c4 =B8 | z4 z4 z2 G2 A2 G2 | c4 c4 A4 F2 c2 | d2 c2 f2 e4 d4 ^c2 | d4 A2 d4 c4 B2- | %11
w: gan to say,|Where dwell- eth|Love, dwell- eth Love, where|dwell- eth Love, where dwell- eth|Love, where dwell- eth Love,|
 BA A4 G2 G2 A2 B3 B | A6 f2 e4 d2 c2- | c2 (B2 A2 G2 A4 B4) | A4 z4 B2 d4 f2 | e2 d2 c2 B2 A8 | %16
w: * that live- ly boy, that live- ly|boy, how might I see|* his * * * *|face, that breed- eth|pain, and bring- eth joy,|
 z2 z4 c4 e4 g2 | f2 e2 d2 c2 B2 A2 d3 d | ^c2 d4 c2 d4 A4 | =B6 G2 c4 B4 | A2 (c2 d4) e6 d2 | %21
w: that breed- eth|pain and bring- eth joy, that al- ter-|eth ev'- ry case: then|with a sigh I|did re\- * frain, I|
 c2 (B2 A4) G8 | z4 z4 z2 f2 e2 d2 | c2 B2 A4 (G2 F2) c4- | c2 g2 f2 e2 d2 c2 B2 A2 | G8 g4 f4- | %26
w: did re\- * frain,|And to the|world let it re\- * main,|* and to the world yet it re-|main, and to|
 f2 e2 d4[Q:1/4=117] c4[Q:1/4=113] (B2[Q:1/4=110] A2 | %27
w: * the world let it *|
[Q:1/4=108] G2)[Q:1/4=105] (F2[Q:1/4=102] G4)[Q:1/4=100] A16 |] %28
w: * re\- * main.|
V:2
 z16 | z4 z4 A,2 B,2 C2 C2 | D4 C4 D2 C2 D2 E2 |[M:4/2] F8 A2 A2 A4 | B4 F4 G2 G2 ^F4 | %5
w: |As I went a|walk- ing in the month of|May, Mer- ri- ly|talk- ing, mer- ri- ly|
 G4 D4 B2 A4 G2- | G2 E4 ^F2 G2 D2 E2 D2 | G4 (C2 D2) E8 | C4 G4 z2 C2 D2 C2 | %9
w: talk- ing, I thus be\-|* gan to say, Where dwell- eth|Love, where * dwell-|eth Love, where dwell- eth|
 F3 E (D2 =B,2 C2) (D2 E4) | D4 F4 A6 (G2 | F2 E2) D4 E2 F4 E2 | F4 F2 A4 G2 F4 | %13
w: love, where dwell\- * * eth *|Love, where dwell- eth|* * Love, that live- ly|boy, How might I see|
 (E2 G2) ^F2 G4 (F2 G4) | ^F4 D2 G4 =F2 B2 A2 | G2 (B2 A2 G2 F4 E4) | D2 F2 B2 A2 G6 E2 | %17
w: his * face, see his *|face, that breed- eth pain and|bring- eth * * * *|joy, that breed- eth pain and|
 A2 (G2 F2 E2) G3 G G2 F2 | E2 (D2 E4) D4 ^F4 | G4 D2 E4 E2 F2 E2 | D2 A4 B2 c6 B2 | %21
w: bring- eth * * joy, that alt'r- eth|ev'- ry * case, Then|with a sigh I did re-|frain, with a sigh I|
 A2 (G2 F4) E2 G2 F2 E2 | D2 C2 B,2 A,2 G,2 (D2 G4) | E4 z2 F2 E2 D2 C2 B,2 | %24
w: did re\- * frain, and to the|world let it re- main, re\- *|main, and to the world let|
 A,2 (G,2 A,4) B,2 F2 G2 F2 | E2 C2 c6 B2 A4 | D4 G4 (E2 C2 F4- | F4 E4) F16 |] %28
w: it re\- * main, let it re-|main, and to the world|let it re\- * *|* * main.|
V:3
 z16 | z4 z4 F2 G2 A2 F2 | B4 A4 G2 A2 B2 c2 |[M:4/2][K:treble-8] F8 f2 f2 f4 | B4 B4 _e2 c2 d4 | %5
w: |As I went a|walk- ing in the month of|may, Mer- ri- ly|talk- ing, mer- ri- ly|
 G4 G4 G2 d4 =B2 | c4 A4 G8 | z2 G2 A2 G2 c8 | z2 C2 E2 C2 F4 (B2 A2) | (F6 G2) A8 | %10
w: talk- ing, I thus be-|gan to say,|Where dwell- eth Love,|where dwell- eth Love, where *|dwell * eth|
 D6 _B,2 F6 G2 | A4 B4 c2 (A2 G4) | F8 z4 B2 A2- | A2 G2 d2 (B2 c2 d2 G4) | d4 z4 z4 z4 | %15
w: Love, where dwell- eth|Love, that live- ly *|boy, How might|* I see his * * *|face,|
 z4 z4 F2 A4 c2 | B2 A2 G2 F2 E2 (C2 c4) | A4 A4 G2 (F2 E2 D2) | A8 D4 d4 | G4 G2 c4 A2 d2 (e2 | %20
w: That breed- eth|pain and bring- eth joy, that *|alt'r- eth ev'- ry * *|* case: Then|with a sigh I did re\-|
 f4 d4) c4 C4 | F3 (G A2 B2) c4 z2 c2 | B2 A2 G2 F2 E2 D2 C4 | C4 F4 z2 B2 A2 G2 | %24
w: * * frain, I|did re\- * * frain, And|to the world let it re- main,|re- main, and to the|
 F2 E2 D2 C2 B,8 | C6 D2 E4 F4 | B6 G2 (c2 A2 B4 | c8) F16 |] %28
w: world let it re- main,|and to the world|let it re\- * *|* main.|

